X: 12786
T: Fear A Bhios Fada Gun Phosadh
R: jig
M: 6/8
K: Eminor
|:EEE GGA|B3 d3|D2D F2G|A2B AFD|
EEE GGA|B3 d3|e2B BAF|E3 E3:|
|:G2G F2E|G2G F2E|D2D F2G|A2B AFD|
[1 G2G F2E|G2G F2E|B2B BAF|E3 E3:|
[2 EEE GGA|B3 d3|e2B BAF|E3 E3||

